X:1
T:Port Louis, LMD
T:Port Louis, LMD
T:French carol, arr. by Edward d’Evry, 1898
T:Public Domain Courtesy of the Cyber Hymnal™
C:French carol, arr. by Edward d’Evry, 1898
Z:Public Domain
Z:Courtesy of the Cyber Hymnal™
%%score ( 1 2 ) ( 3 4 )
L:1/8
Q:1/4=96
M:2/4
K:Bb
V:1 treble 
V:2 treble 
V:3 bass 
V:4 bass 
V:1
 D2 | [DG]2 D2 | G3 z A | (B>A) ([DB]z/)G/ | [^Fd]3 [GB] x | [Gc]2 [Gd]2 | (e>d) (c>B) | %7
 [GA]2 [Gd]2 | (c>B [^FA]>)[FB] | [DG]2 D2 | G3 z A | (B>A) (B>G) | [Dd]3 [GB] x | [Gc]2 [Gd]2 | %14
 (e>d) (c>B) | [GB]2 [^FA]2 | G3 [^FA] | [^FA]2 [FA]2 | [^FA]3 [DG] | [^FA]2 [GB]2 | [Ac]3 [GB] | %21
 [Ac]2 [Ad]2 | G2 (AB) | (cB) (AG) | (G2 ^F)[FA] | [^FA]2 [DA]2 | [D^A]3 [DG] x | [DA]2 [DB]2 | %28
 [Dc]3 [DB] | [Gc]2 [Gd]2 | (ed) (cB) | [GB]2 [^FA]2 | G3 |] %33
V:2
 D2 | x2 D2 | D2 D2 x | D2 E x | x5 | x4 | G2 G2 | x4 | G2 x2 | x2 D2 | D2 E2 x | F2 E2 | x5 | x4 | %14
 G2 G2 | x4 | G3 x | x4 | x4 | x4 | x4 | x4 | G2 G2 | G2 E2 | D3 x | x4 | x5 | x4 | x4 | x4 | %30
 G2 G2 | x4 | G3 |] %33
V:3
 [D,D]2 | [G,B,]2 [A,C]2 | [B,D]2 [A,C]2 x | [G,B,]2 [G,B,]2 | A,2 z G, x | [A,D]2 [B,D]2 | %6
 C2 E>D | [D,C]2 [D,B,]2 | ([D,-A,]2 [D,D]>)[D,C] | [G,B,]2 [G,C]2 | [G,B,]2 [E,B,]2 x | %11
 [D,B,]2 [C,B,]2 | G,2 z G, x | [G,A,]2 [G,B,]2 | (C>B,) (E>D) | [D,D]2 [D,C]2 | [G,B,]3 D | %17
 D2 D2 | D3 [B,D] | [A,C]2 [G,D]2 | [F,F]3 [F,F] | FE [F,D]2 | [E,D]2 [E,C]2 | (ED) (CB,) | %24
 (B,2 A,)[D,D] | [D,D]2 [D,C]2 | B,3 z B, | [C,^F,]2 [B,,G,]2 | (G,2 ^F,)[B,,G,] | G,A, [D,B,]2 | %30
 (CB,) (FD) | [D,D]2 (DC) | [G,,B,]3 |] %33
V:4
 x2 | x4 | x5 | x4 | D,3 D2 | x4 | C2 C,2 | x4 | x4 | x4 | x5 | x4 | B,,3 D2 | x4 | C,2 C,2 | x4 | %16
 x3 D | D2 D2 | D2 C x | x4 | x4 | F,2 x2 | x4 | C,2 C,2 | D,3 x | x4 | D,2 D,2 x | x4 | A,,3 x | %29
 E,2 x2 | C,2 A,,2 | x2 D,2 | x3 |] %33

